!!!OTL: All Of Me
!!!MPN: Shavers, Charlie
!!!OAT: Shavers, Charlie
!!!OAL: Here Comes Charlie
!!!ODL: 1960-07-??
!!!COM: Marks, Gerald
!!!ODT: 1931
**kern	**jazz
*ITromp	*
*ITrd1c2	*ITrd1c2
*clefG2	*
*F:	*F:
*k[b-]	*k[b-]
*M4/4	*M4/4
=1-	=-1
2.ff	F:maj6
8ccL	.
8aJ	.
=2	=2
4r	F:maj6
8r	.
8a	.
8ffL	.
8ff	.
8ff	.
[8ffJ	.
=3	=3
2ff_	A:7
8ff]L	.
8ee	.
8cc	.
8aJ	.
=4	=4
8gL	A:7
[8aJ	.
4a]	.
4r	.
8r	.
8a	.
=5	=5
4dd	D:7
8ccL	.
[8aJ	.
4a\]	.
8r	.
[8ee-	.
=6	=6
4ee-]	D:7
8ddL	.
8ccJ	.
8aL	.
8b-	.
8cc	.
8cc#J	.
=7	=7
8ddL	G:min7
8ee-	.
8cc	.
8cc#J	.
8ddL	.
8a	.
8cc	.
[8b-J	.
=8	=8
8b-]L	G:min7
8aJ	.
4g	.
4r	.
8r	.
8g#/	.
=9	=9
8aL	A:7
8cc#	.
8ee	.
8aaJ	.
6r	.
6aa	.
6aa	.
=10	=10
6aa	A:7
6gg	.
[6bb-	.
2bb-\_	.
=11	=11
4bb-]	D:min7
8r	.
8aa	.
8ggL	.
8ee	.
8cc#	.
8b-J	.
=12	=12
8aL	.
8g	.
8f	.
8gJ	.
8aL	.
8ddJ	.
4r	.
=13	=13
4r	G:7
8r	.
8b-	.
8bL	.
8dd	.
8ff	.
8aaJ	.
=14	=14
8r	G:7
8ee	.
4gg	.
8r	.
8dd	.
4ff	.
=15	=15
8r	G:min7
8cc\	.
4ee\	.
8r	.
8b-\	.
4dd\	.
=16	=16
8r	C:7
8b-	.
8bL	.
8ccJ	.
8cc#L	.
8b-	.
8g	.
8eJ	.
=17	=17
4f	F:maj
4r	.
2r	.
==	==
*-	*-
!!!OCL: Hubert Leveille Gauvin
!!!ENC: Hubert Leveille Gauvin
!!!END: 2018-04-13
